src/dark/hiso font dark_p12-right arrow.svg

<svg xmlns="http://www.w3.org/2000/svg" width="126" height="126" viewBox="0 0 126 126"><path fill="#000101" d="M36 27v18l-36 18v36l36 18 18-9 18 9 36-54-72-36zm3 4.85l31.5 15.75v12.98l-31.5-15.75v-12.98zm-1.32 15.66l30.97 15.49-32.65 16.33-30.97-15.49 32.65-16.33zm-34.68 49.64v-30.97l31.5 15.75v30.97l-31.5-15.75zm54.359 9.17l13.141-6.57v13.15l-13.141-6.58z"/></svg>

<svg xmlns="http://www.w3.org/2000/svg" width="126" height="126"><path fill="#000101" d="M36 27v18L0 63v36l36 18 18-9 18 9 36-54-72-36zm3 4.85L70.5 47.6v12.98L39 44.83V31.85zm-1.32 15.66L68.65 63 36 79.33 5.03 63.84l32.65-16.33zM3 97.15V66.18l31.5 15.75v30.97L3 97.15zm54.359 9.17L70.5 99.75v13.15l-13.141-6.58z"/></svg>
